assets/features/payment-flow/shopee.svg

<svg width="40" height="40" viewBox="0 0 40 40" fill="none" xmlns="http://www.w3.org/2000/svg">
<rect width="40" height="40" rx="8" fill="#EE4E2C"/>
<path fill-rule="evenodd" clip-rule="evenodd" d="M12.3609 13.8114H28.0967C29.1434 13.8114 30 14.6678 30 15.7143V26.7234C30 27.7699 29.1434 28.6263 28.0967 28.6263H11.9033C10.8566 28.6263 10 27.7699 10 26.7234V13.1239C10 12.6289 10.4084 12.2863 10.8989 12.2253L25.4095 10.374C25.9047 10.374 26.3084 10.7776 26.3084 11.2727V12.8119H11.4527C11.4527 13.4571 11.6452 13.8114 12.3586 13.8114H12.3609ZM21.1852 25.874C19.8615 26.1274 18.1601 25.6863 17.2354 24.6915C16.8176 24.2433 17.4912 23.5652 17.9113 24.0181C18.5332 24.6891 19.6433 25.0012 20.5492 24.9801C21.7038 24.9542 22.7294 23.9054 22.0746 22.7323C21.1664 21.1086 18.9322 21.5638 17.7822 20.2874C16.8529 19.2573 17.2941 17.6383 18.3854 16.9227C19.5236 16.1742 21.4879 16.2024 22.4243 17.277C22.828 17.7369 22.1521 18.415 21.7484 17.9504C20.9927 17.0846 19.2068 17.2019 18.5238 18.0935C17.5546 19.3676 19.0049 20.0527 20.0188 20.3601C21.4128 20.7824 22.9594 21.5544 23.2129 23.1523C23.4147 24.4381 22.4196 25.637 21.1852 25.874Z" fill="white"/>
</svg>

<svg xmlns="http://www.w3.org/2000/svg" width="40" height="40" fill="none" viewBox="0 0 40 40"><rect width="40" height="40" fill="#ee4e2c" rx="8"/><path fill="#fff" fill-rule="evenodd" d="M12.36 13.811h15.737A1.91 1.91 0 0 1 30 15.714v11.01a1.91 1.91 0 0 1-1.903 1.902H11.903A1.91 1.91 0 0 1 10 26.723v-13.6c0-.494.408-.837.899-.898l14.51-1.851a.9.9 0 0 1 .9.899v1.539H11.452c0 .645.192 1 .906 1zm8.825 12.063c-1.323.253-3.025-.188-3.95-1.182-.417-.449.256-1.127.676-.674.622.671 1.732.983 2.638.962 1.155-.026 2.18-1.075 1.526-2.248-.909-1.623-3.143-1.168-4.293-2.445-.93-1.03-.488-2.649.603-3.364 1.139-.749 3.103-.72 4.04.354.403.46-.273 1.138-.677.673-.755-.865-2.541-.748-3.224.143-.97 1.275.48 1.96 1.495 2.267 1.394.422 2.94 1.194 3.194 2.792.202 1.286-.793 2.485-2.028 2.722" clip-rule="evenodd"/></svg>
